img/ellipse-white.svg

<svg width="1638" height="1142" viewBox="0 0 1638 1142" fill="none" xmlns="http://www.w3.org/2000/svg">
<g style="mix-blend-mode:soft-light">
<path d="M1612.63 1025.1C1585.42 1072.66 1537.32 1105.32 1473.57 1123.64C1409.81 1141.95 1330.43 1145.9 1240.72 1136.05C1061.31 1116.35 840.701 1041.44 621.437 915.977C402.173 790.516 225.81 638.28 117.915 493.59C63.9662 421.245 27.1498 350.805 10.6339 286.559C-5.88114 222.315 -2.09109 164.297 25.1212 116.739C52.3334 69.1815 100.432 36.5163 164.185 18.2022C227.942 -0.112849 307.325 -4.06435 397.031 5.78811C576.442 25.4928 797.051 100.402 1016.32 225.863C1235.58 351.324 1411.94 503.559 1519.84 648.249C1573.79 720.595 1610.6 791.035 1627.12 855.281C1643.63 919.525 1639.84 977.542 1612.63 1025.1Z" stroke="white"/>
</g>
</svg>

<svg width="1638" height="1142" fill="none" xmlns="http://www.w3.org/2000/svg"><path d="M1612.63 1025.1c-27.21 47.56-75.31 80.22-139.06 98.54-63.76 18.31-143.14 22.26-232.85 12.41-179.41-19.7-400.019-94.61-619.283-220.073C402.173 790.516 225.81 638.28 117.915 493.59 63.966 421.245 27.15 350.805 10.634 286.559-5.881 222.315-2.091 164.297 25.12 116.739c27.212-47.558 75.311-80.223 139.064-98.537C227.942-.113 307.325-4.064 397.031 5.788c179.411 19.705 400.02 94.614 619.289 220.075 219.26 125.461 395.62 277.696 503.52 422.386 53.95 72.346 90.76 142.786 107.28 207.032 16.51 64.244 12.72 122.261-14.49 169.819Z" stroke="#fff" style="mix-blend-mode:soft-light"/></svg>
